X:1
T:La Damnation de Faust (Vocal Score)
T:La Damnation de Faust Scene I (Vocal Score)
T:Hector Berlioz
T:Plaines de Hongrie
C:Op. 24, Hector Berlioz
%%score 1 { ( 2 4 6 7 ) | ( 3 5 8 ) }
L:1/8
Q:1/8=152
M:6/8
K:D
V:1 treble-8 nm="Faust" snm="F."
V:2 treble nm="Piano" snm="Pno."
V:4 treble 
V:6 treble 
V:7 treble 
V:3 bass 
V:5 bass 
V:8 bass 
V:1
"^Andante placido" z6 | z6 | z6 | z6 | z6 | z6 | z6 | z2 z z2 c |!p! c3- c2 B | A3- A2 ^G | %10
 A2 B d2 c | c6 | z6 | z B c d3 | c2 F B2 A | A3 ^G2 z | z6 | z2 z z2 A | A6 | z6 | z d e =f3 | %21
 e2 A (d2 c) | B2 z z2 z | z6 | c3- c B A | ^G3 z A G |!mf! e3 e2 a |!f! a6 | z6 | z6 | z6 | z6 | %32
 z6 | z6 | z6 | z6 | z6 | z6 | z6 | z6 | z6 | z6[Q:1/8=184] |[Q:1/8=184] z2!ppp! A B2 c | d3 d3 | %44
 d3 c2 c | =c2 B A2 B | A3 G2 z | z6 | z6 | z6 | z6 | z6 | z6 | z6 | z6 | z6 | z6 | z6 | z6 | z6 | %60
 z6 | z6 | z6 | z6 | z6 | z6 | z6 | z6 | z6 | z6 | z6 | z6 | z6 | z6 |] %74
V:2
!p! (A3- A2 G | F3- F2 G | A2 B c2 d) | (d3 F2) z | (B2 A GFE) | E!pp! (GA _B3 | A2) (D G2 F | %7
!<(! E3!<)!!mp!!>(! ^E3-)!>)! |!p! (c3- c2 B | A3- A2 B | c2 d ^e2 f) | (f3 A2) z | (d2 c BA^G) | %13
 ^G (Bc d3 | c2) (F B2 A) | (e3- e2 d | c3- c2 d | e2 f ^g2 a) | (a3 c2) z | (f2 e dcB) | %20
 (Bde!<(! =f3!<)! | e2 A d2 c) | z (ba- a^g(f | !^!^g3-) g2 f | ^e3- e2 f | ^g2 a ^b2 c') | %26
!<(! [^gc']3 [e=g-]3!<)! |!f! ([A-cga-]3 [Adfa]2 [Gceg] | [Fdf]3- [Fdf]2 [Gg] | %29
 [Ada]2 [Bb] [cec']2 [dfd']) | ([dfd']3 [FAf]2) z | ([Begb]2 [Acea] [Gg][Ff][Ee] | %32
 [EAce][Gg][Aa] _b3 | [Adfa]2 d [Geg]2 [Fdf] |!>(! [cf-c']3!>)!!mf! [dfd']3) | %35
 ([ff']3- [ff']2 [ee'] |!>(! [^da^d']3 [=cf=c']2!>)! [Bgb] |!p! [Aa]2 [Ff] [Gg]2 [Aa] | %38
"_cresc." [B^dab]3 [^Ae=g^a]3) | ([f=af']3 [eae']2 [dd'] | c'3"_dim." [gb]2 [fa] | %41
 g2 f)!pp! z/4!pp! G,/4A,/4B,/4 C/4D/4E/4F/4 G/4A/4B/4c/4 |!pp! d6- | (d6 | (e6) | (f2) g a2 g) | %46
 (f3 g3-) | g6 | z6 | z6 | z6 | z6 | z6 | z6 | z6 | z6 | z6 | z6 | z6 | z6 | z6 | z6 | z6 | z6 | %64
 z6 | z6 | z6 | z6 | z6 | z6 | z6 | z6 | z6 | z6 |] %74
V:3
 z6 | z6 | z6 | z6 | z6 | z6 |!p! (D,6- | D,C,B,,- B,,A,,^G,,- | G,,A,,F,, (C,,3 | F,,2)) z F(CD | %10
 CF,B,- B,^G,A, | F,^G,A, F,G,A, | B,^G,A, B,CD) | (D2 C-) C2 B,- | B,2 (A,- A,^G,A,) | %15
 C>(A,E,/C/ B,>)(^G,A,/B,/ | A,>)(E,A,/C/ E>)(FE/D/ | C>)(E^D/E/ =D>)(E^D/E/ | %18
 C>)(A,^G,/A,/ F>)(ED/C/ | D>)(F,^G,/A,/ B,>)(CD/E/ | =F>)(ED/C/ D>)(B,C/D/ | %21
!f! C>)(C^B,/C/ F>)(F=F/E/) | (E/^F/E/F/E/^D/) (D/F/E,/=G,/^D,/A,/) | %23
 (^G,/A,/G,/A,/G,/A,/ G,/A,/G,/A,/G,/A,/) | (^G,/A,/G,/A,/G,/A,/ G,/A,/G,/A,/G,/A,/) | %25
 (^G,/A,/G,/A,/G,/A,/ G,/A,/G,/A,/G,/A,/) | ^C,,/^C,/E,,/E,/^G,,/^G,/ A,,/A,/E,/A,/=G,/A,/ | %27
 [D,E,G,]/A,/[D,E,G,]/A,/[D,E,G,]/A,/ [D,F,]/A,/[D,F,]/A,/[D,E,G,]/A,/ | %28
 ([D,F,A,]/D/[D,F,A,]/D/[D,F,A,]/D/) ([D,F,]/A,/[D,F,]/A,/[D,E,]/A,/) | %29
 ([D,E,G,]/A,/[D,E,G,]/A,/[D,F,]/A,/) ([D,E,G,]/A,/[D,E,G,]/A,/[D,F,]/A,/) | %30
 ([D,F,A,]/D/[D,F,A,]/D/[D,F,A,]/D/) ([D,F,A,]/D/[D,F,A,]/D/[D,F,A,]/D/) | %31
 ([D,E,G,]/C/[D,E,G,]/C/[D,E,G,]/C/) ([D,E,G,]/C/[D,E,G,]/C/[D,E,G,]/C/) | %32
 ([D,E,G,]/C/[D,E,G,]/C/[D,E,G,]/C/) ([D,E,G,]/C/[D,E,G,]/A,/[D,E,G,]/A,/) | %33
 ([D,F,]/D/[D,F,A,]/D/[D,F,A,]/D/) ([D,A,]/C/[D,A,]/C/[D,A,]/D/) | %34
[K:treble] (E/F/E/F/C/F/) (D/F/D/F/D/F/) | ([^DF]/A/[DF]/A/[DF]/A/) (E/A/E/A/E/A/) | %36
 F/A/F/A/[K:bass]A,/^D/ D/F/D/F/=B,/E/ | ^C/^D/C/D/A,/C/ ^D,/A,/D,/A,/D,/A,/ | %38
 (F,/A,/F,/A,/F,/A,/) (E,/G,/E,/G,/E,/G,/) | %39
 ([F,=A,]/D/[F,A,]/D/[F,A,]/D/) ([F,A,]/D/[F,A,]/D/[F,A,]/D/) | %40
 (A,/C/A,/C/A,/C/) (A,/C/A,/C/A,/C/) | [EG]2 [DF] [C-E]2 [A,CF] |!ppp! D,(.D,,.D,, .D,,.D,,.D,,) | %43
 B,,/4A,,/4G,,/4F,,/4 G,,/4A,,/4B,,/4C,/4 D,/4E,/4F,/4G,/4 A,/4B,/4C/4[I:staff -1]D/4 E/4F/4G/4A/4 G/4F/4E/4F/4 | %44
[I:staff +1] A,2 A,- A,2 x | %45
 (=C,/4B,,/4A,,/4^G,,/4 A,,/4C,/4B,,/4A,,/4 =G,,/4^G,,/4A,,/4B,,/4 C,/4D,/4E,/4F,/4 G,/4A,/4B,/4=C/4 D/4[I:staff -1]E/4F/4G/4) | %46
[I:staff +1] z2 (D E2 F) | %47
 D/4=C/4B,/4C/4 D/4C/4B,/4A,/4 G,/4F,/4E,/4F,/4 G,/4A,/4B,/4C/4[I:staff -1] D/4E/4F/4G/4 A/4B/4=c/4A/4 | %48
[I:staff +1] z6 | z6 | z6 | z6 | z6 | z6 | z6 | z6 | z6 | z6 | z6 | z6 | z6 | z6 | z6 | z6 | z6 | %65
 z6 | z6 | z6 | z6 | z6 | z6 | z6 | z6 | z6 |] %74
V:4
 x6 | x6 | x6 | x6 | x6 | x6 | x6 | x6 | EFF- F^E^G- | GFC x3 | x6 | x6 | x6 | x6 | x6 | %15
 (A3 ^G/) (E/ e2) | z/ (E/ e2) z/ (A/ a2) | z/ (A/ a2) z/ (e/ e'2) | z/ (e/ e'2) z/ (A/ a2) | %19
 z/ (A/ a2) z/ (A/ a2) | z/ (^G/ ^g2) z/ (G/ g2) | z/ (A/ a2) z/ (A/ a2) | B3 ^B3- | %23
 [Bf][ce][ce-] e^dd- | dc^B c^e^d | ce^d fd^g | ece- cAe | x6 | x6 | x6 | x6 | x6 | %32
 x3 [_B_b] [ce]2 | x6 | x6 | x6 | x6 | x6 | x6 | x6 | [cc']2 c- c3 | c/A/c/A/c/A/ x3 | %42
 ([Fd]/4e/4f/4g/4 a/4g/4f/4e/4 d/4c/4B/4A/4 G/4F/4E/4D/4 C/4[I:staff +1]B,/4A,/4G,/4 F,/4E,/4D,/4C,/4) | %43
 x6 | %44
[I:staff -1] (G/4A/4B/4A/4 G/4F/4E/4F/4 G/4F/4E/4D/4 C/4D/4E/4D/4 C/4[I:staff +1]B,/4A,/4G,/4 F,/4E,/4D,/4C,/4) | %45
[I:staff -1] d3- (d=cB) | %46
 (A/4B/4=c/4B/4 c/4d/4e/4f/4 g/4a/4b/4=c'/4 b/4a/4g/4f/4 e/4d/4c/4B/4 A/4G/4F/4E/4) | G3 G3 | x6 | %49
 x6 | x6 | x6 | x6 | x6 | x6 | x6 | x6 | x6 | x6 | x6 | x6 | x6 | x6 | x6 | x6 | x6 | x6 | x6 | %68
 x6 | x6 | x6 | x6 | x6 | x6 |] %74
V:5
 x6 | x6 | x6 | x6 | x6 | x6 | x6 | x6 | x6 | x6 | x6 | x6 | x6 | x6 | x6 | x6 | x6 | x6 | x6 | %19
 x6 | x6 | (A,6- | A,^G,F,- F,E,^D,- | D,E,C, (^G,,3 | C,2) ^G,, C,2 ^D, | E,2 F, ^D,2 E,) | %26
 C,,E,,^G,, A,,3 | x6 | x6 | x6 | x6 | x6 | x6 | x6 |[K:treble] [^A,C][A,C]A, B,B,B, | %35
 ^B,B,B, CCC | ^B,2[K:bass] F, A,A,G, | F,2 ^D, B,,3- | B,,3 ^C,3 | D,6 | F,6 | A,6 | x6 | %43
 (.D,,.D,,.D,, .D,,.D,,.D,,) | (.D,,.D,,.D,, .D,,.D,,.D,,) | (.D,,.D,,.D,, .D,,.D,,.D,,) | %46
 (.D,,.D,.D, .D,.D,.D,) | (.D,.D,.D, .D,.D,.D,) | x6 | x6 | x6 | x6 | x6 | x6 | x6 | x6 | x6 | x6 | %58
 x6 | x6 | x6 | x6 | x6 | x6 | x6 | x6 | x6 | x6 | x6 | x6 | x6 | x6 | x6 | x6 |] %74
V:6
 x6 | x6 | x6 | x6 | x6 | x6 | x6 | x6 | x6 | x6 | x6 | x6 | x6 | x6 | x6 | x6 | x6 | x6 | x6 | %19
 x6 | x6 | x6 | x6 | x3 ^B3 | x6 | x6 | x6 | x6 | x6 | x6 | x6 | x6 | x6 | x6 | x6 | x6 | x6 | x6 | %38
 x6 | x6 | x6 | x6 | x6 | x6 | x6 | x6 | x6 | x6 | x6 | x6 | x6 | x6 | x6 | x6 | x6 | x6 | x6 | %57
 x6 | x6 | x6 | x6 | x6 | x6 | x6 | x6 | x6 | x6 | x6 | x6 | x6 | x6 | x6 | x6 | x6 |] %74
V:7
 x6 | x6 | x6 | x6 | x6 | x6 | x6 | x6 | x6 | x6 | x6 | x6 | x6 | x6 | x6 | x6 | x6 | x6 | x6 | %19
 x6 | x6 | x6 | x6 | x6 | ^G6 | x6 | x6 | x6 | x6 | x6 | x6 | x6 | x6 | x6 | x6 | a6 | x6 | x6 | %38
 x6 | x6 | x6 | x6 | x6 | x6 | x6 | x6 | x6 | x6 | x6 | x6 | x6 | x6 | x6 | x6 | x6 | x6 | x6 | %57
 x6 | x6 | x6 | x6 | x6 | x6 | x6 | x6 | x6 | x6 | x6 | x6 | x6 | x6 | x6 | x6 | x6 |] %74
V:8
 x6 | x6 | x6 | x6 | x6 | x6 | x6 | x6 | x6 | x6 | x6 | x6 | x6 | x6 | x6 | x6 | x6 | x6 | x6 | %19
 x6 | x6 | x6 | x6 | x6 | x6 | x6 | x6 | x6 | x6 | x6 | x6 | x6 | x6 | x6 |[K:treble] x6 | x6 | %36
 x2[K:bass] x4 | x6 | x6 | x6 | x6 | x6 | x6 | x5 A,- | x6 | x6 | x6 | x6 | x6 | x6 | x6 | x6 | %52
 x6 | x6 | x6 | x6 | x6 | x6 | x6 | x6 | x6 | x6 | x6 | x6 | x6 | x6 | x6 | x6 | x6 | x6 | x6 | %71
 x6 | x6 | x6 |] %74

